X:519
%%etbk:tnset id:250,pos:3,rep:3x,ant:
%%etbk:wsite http://thesession.org/tunes/2301
%%etbk:video src:ytube,cde:yAkVrc5LjsI,desc:third tune
%%etbk:pldat 2016-09-16T15:27,2016-09-13T17:46,2016-05-24T16:44,2016-04-11T18:49,2016-03-24T16:32,2016-03-21T18:42,2016-03-20T10:33,2016-03-17T18:30,2015-09-06T14:45,2015-07-17T15:22,2015-05-06T15:40,2015-02-14T14:29,2015-02-04T16:55,2015-02-03T17:05,2015-01-26T19:33,2015-01-24T12:45,2015-01-17T14:49,2015-01-05T19:39,2014-12-31T15:28,2014-12-29T16:48,2014-12-28T15:30,2014-09-09T18:40,2014-07-04T13:05,2014-05-19T18:27,2014-05-01T18:54,2014-04-12T15:23,2014-04-03T19:48,2014-04-02T17:56,2014-03-18T16:59,2014-03-16T15:47,2014-03-15T16:40,2014-03-09T16:59,2014-03-01T17:37,2014-02-20T19:21,2014-02-19T16:34,2014-02-16T16:06,2014-02-15T16:56,2014-02-14T17:05,2014-02-14T15:47,2014-02-13T18:40,2014-02-11T17:07,2013-10-04T17:22,2013-09-26T15:36
T: Charlie Mulvihill's
Z: Piano Box Version by Martin Fleischmann
H: Created 2013-09-10 /  Last Modified 2014-02-19
R: reel
M: 4/4
L: 1/8
K: Dmaj
|:!4!A!2!F F{G}F !3!G2 FG | !4!AF F{G}F !1!E!3!GF!1!E | !1!D2 F!3!A !5!d!3!fe!1!d | !4!d!2!B!1!A!3!F E2 !4!d!2!B |
!1!A!2!F F{G}F !3!G2 FG | !4!AF F{G}F !1!E!3!GFE | !1!D2 !2!F!1!A !3!d!5!fed | !3!d!2!B!1!A!2!F !1!D4 :|
!4!e|:!3!f2 !3!fa g2 fg | !5!afdf !2!e!1!d!2!B!1!d | !3!f2 fe !1!d!3!fe!1!d | !4!dB!1!A!2!F !1!E2 !3!fg |
!5!a!3!f f2 !5!bf !3!f2 | !5!a!3!f f2 efde | !3!f2 fe !1!dfe!1!d | !4!dB!1!A!2!F !1!D4 :|


